X: 341
T:The Last Pint
M:4/4
L:1/8
C:Pierre Bensusan
S:Lunasa
Z:Rachel Marsh
K:G
~G3 E DEGA | BGAB AGED | ~G3 E DEGA | BGAB A4  |
~G3 E DEGA | B2 AB AGED | GABG BcAG | FD D/2E/2F/2G/2
AG G2 :||
GBdG (3B^cd GB | cBAG BGGF | GBdG (3B^cd GB | cBAG FD
D/2E/2F/2G/2 | G2 dG (3B^cd GB | cBAG BGGF | ~G3 E DEGA
BGAB A4 :||
<end>
<start>
